X:56
T:Rondo
C:Calace
N:TablEdited by Mike Stangeland
L:1/8
Q:1/4=240
M:2/4
K:D
z4 | dA3/4c/4 BG | FA df | gf/e/ fe/d/ | e/d/c/B/ A2 | dA3/4c/4 BG | FA df | g/a/b c/e/a | 
dA D2 | dA3/4c/4 BG | FA df | gf/e/ fe/d/ | e/d/c/B/ A2 | dA3/4c/4 BG | FA df | 
g/a/b c/e/a | dA D2 | C/D/E/F/ G/A/B/c/ | df ad'3/4d'/4 | bg/b/ d'd'3/4d'/4 | 
af/a/ d'd'3/4d'/4 | ^ge/g/ bb | aa/^g3/2A | zg/f3/2A | ze/^d3/2A | dA3/4c/4 BG | 
FA df | gf/e/ fe/d/ | e/d/c/B/ A2 | dA3/4c/4 BG | FA df | z/a/b c/e/a | dA D2 | 
d/4d/4d/4d/4e/4e/4e/4e/4 =f/4f/4f/4f/4a/4a/4a/4a/4 | d'/4d'/4d'/4d'/4a/4a/4a/4a/4 =f/4f/4f/4f/4d/4d/4d/4d/4 | 
=f/4f/4f/4f/4e/4e/4e/4e/4 d/4d/4d/4d/4f/4f/4f/4f/4 | e/=f/e/4e/4e/4e/4 e/4e/4e/4e/4e/4e/4e/ | 
e/4e/4e/4e/4=f/4f/4f/4f/4 g/4g/4g/4g/4e/4e/4e/4e/4 | c/4c/4c/4c/4d/4d/4d/4d/4 e/4e/4e/4e/4c/4c/4c/4c/4 | 
e/4e/4e/4e/4d/4d/4d/4d/4 =F/4F/4F/4F/4G/4G/4G/4G/4 | ^G/4G/4G/4G/4G/4G/4G/4G/4 G/4G/4G/4G/4A/4A/4A/ | 
d/4d/4d/4d/4e/4e/4e/4e/4 =f/4f/4f/4f/4a/4a/4a/4a/4 | d'/4d'/4d'/4d'/4a/4a/4a/4a/4 =f/4f/4f/4f/4d/4d/4d/4d/4 | 
=f/4f/4f/4f/4e/4e/4e/4e/4 d/4d/4d/4d/4f/4f/4f/4f/4 | e/=f/e/4e/4e/4e/4 e/4e/4e/4e/4e/4e/4e/ | 
=c'/4c'/4c'/4c'/4^a/4a/4a/4a/4 g/4g/4g/4g/4e/4e/4e/4e/4 | ^a/4a/4a/4a/4=a/4a/4a/4a/4 =f/4f/4f/4f/4d/4d/4d/4d/4 | 
e/4e/4e/4e/4e/4e3/4 c/4c/4c/4c/4c/4c3/4 | d/4d/4d/4d/4d/4d3/4 D2 | d/=f/a/^a/ =c'/a/=a/_b/ | 
d/=f/a/^a/ =c'/a/=a/_b/ | c/e/^g/a/ ^a/=a/g/a/ | c/e/^g/a/ ^a/=a/g/a/ | B/d/f/g/ a/g/f/g/ | 
B/d/f/g/ a/g/f/g/ | A/=c/e/=f/ g/f/e/f/ | A/=c/e/=f/ g/f/e | ^g/=f/c/=c/ ^c/=c/^c/f/ | 
z/=f/c/=c/ ^c/=c/^c/f/ | z/f/c/=c/ ^c/=c/^c/f/ | z/f/c/=c/ ^c/=c/^c/f/ | a/g/f/e/ a/g/f/e/ | 
a/g/f/e/ a/g/f/e/ | b/a/g/f/ e/d/c/B/ | A/B/c/dfe/ | dA3/4c/4 BG | FA df | gf/e/ fe/d/ | 
e/d/c/B/ A2 | dA3/4c/4 BG | FA df | g/a/b c/e/a | dA D2 | Bf g/4g/4g/4g/4g/4g/4g/4g/4 | 
g/f/g/f/ e/d/c/B/ | Ac f/4f/4f/4f/4f/4f/4f/4f/4 | f/e/f/e/ d/c/B/A/ | GB e/4e/4e/4e/4e/4e/4e/4e/4 | 
e/d/e/d/ c/B/A/G/ | F/c/e/f/ g/e/f/d/ | z/c/d/B/ c^A | Bf g/4g/4g/4g/4g/4g/4g/4g/4 | 
g/f/g/f/ e/d/c/B/ | Ac f/4f/4f/4f/4f/4f/4f/4f/4 | f/e/f/e/ d/c/B/A/ | GB e/4e/4e/4e/4e/4e/4e/4e/4 | 
e/d/e/d/ c/B/A/G/ | F/c/e/e/ F/c/e/e/ | G/c/e/e/ G/c/e/e/ | F/c/e/e/ F/c/e/e/ | 
G/c/e/e/ G/c/e/e/ | ^G/c/e/e/ G/c/e/e/ | ^G/c/e/e/ G/c/e/e/ | ^G/d/e/e/ G/d/e/e/ | 
^G/d/e/e/ G/d/e/e/ | ze3/4^g/4 fd | ce ac' | d'c'/b/ c'b/a/ | b/a/^g/f/ e2 | ae3/4^g/4 fd | 
ce ac' | b/c'/b/^a/ be | b/c'/b/^a/ be | z/d'/=c'/b/ c'e | z/d'/=c'/b/ c'e | z/d'/c'/=c'/ ^c'e | 
z/d'/c'/=c'/ ^c'e | z/d'/e'/e'/ f'/f'/e'/e'/ | d'/d'/c'/c'/ d'/d'/c'/c'/ | z/d'/e'/e'/ f'/f'/e'/e'/ | 
d'/d'/c'/c'/ d'/d'/c'/c'/ | z/d'/e'/e'/ f'2 | z2 dc | Bc d2 | z2 FE | DE F2 | 
z2 [B2D2] | z2 [c2F2] | z2 B2 | z2 [b2d2] | z2 [c2G2] | z2 [e2A2] | z2 [a2c2] | 
z2 [c'2A2] | z4 | d/4d3/8d3/8A/4A3/8=c3/8 B/4B3/8B3/8G/4G3/4 | F/4F3/8F3/8A/4A3/8A3/8 d/4d3/8d3/8f/4f3/4 | 
g/4g3/8g3/8f/4f/4e/ f/4f3/8f3/8e/4e/4d/ | e/4e/4d/4d/4c/4c/4B/4B/4 A/4A3/8A3/8A/4A3/4 | 
d/4d3/8d3/8A/4A3/8=c3/8 B/4B3/8B3/8G/4G3/4 | F/4F3/8F3/8A/4A3/8A3/8 d/4d3/8d3/8f/4f3/4 | 
g/4g/4a/4a/4b/4b3/4 c/4c/4e/4e/4a/4a3/4 | dA D2 | C/D/E/F/ G/A/B/c/ | df ad'3/4d'/4 | 
bg/b/ d'd'3/4d'/4 | af/a/ d'd'3/4d'/4 | ze/^g/ bb | za/^g/ aA | zg/f/ gA | ze/^d3/2A | 
dA3/4c/4 BG | FA df | gf/e/ fe/d/ | e/d/c/B/ A2 | dA3/4c/4 BG | FA df | g/a/b3 | 
c/e/a3 | dA FD | EF G2 | ef g2 | FG A2 | fg a2 | z/a/g/f/ e/d/c/B/ | A/B/A/G/ F/E/D/C/ | 
D2 [a2c2E2A,2] | [f2A2D2] [e2A2G2] | [d2F2] D2 | D/4D/4D/4D/4D/4D/4D/4D/4 D/4D/4D/4D/4D/4D/4D/4D/4 | 
D/4D/4D/4D/4D/4D/4D/4D2z/4 | 
 

